X:1
T:RVW2/1/108 A Lady Walking in a Garden
T:RVW2/1/108 A Lady Walking in a Garden
T:Transcribed by Simon Furey and Lewis Jones Sung by Burrage, 'Rushills', Capel, Surrey, April/August 1908 [5 of 5]
C:Transcribed by Simon Furey and Lewis Jones
C:Sung by Burrage, 'Rushills', Capel, Surrey, April/August 1908 [5 of 5]
L:1/8
Q:1/4=80
M:3/4
K:G
V:1 treble 
V:1
"^Editorial suggestion" G>A | BG d2 G>A |[M:4/4]"^(a)" BGED F2 G>G |[M:3/4] AB AG B,C | DE D2 D>C | %5
 B,D c2 BA | G/A/B A/F/D !fermata!DD | GA/B/ cABG | D/F/A G2 || G>A | BG d2 G>A | %11
[M:4/4]"^(a) var." AB/A/ ED F2 G>G |[M:3/4] AB AG B,C | DE D2 D>C | B,D c2 BA | %15
 G/A/B A/F/D !fermata!DD | GA/B/ cA BG | D/F/A G2 |] %18

